X: 27302
T: Missing The Wren
R: jig
M: 6/8
K: Amixolydian
|:ABA AGE|GED DEG|A2G B2G|ABA AGE|
ABA AGE|GED DEG|A2G B2G|ABA A3:|
|:ABG BAG|ABd edB|deg ged|ged BAG|
ABG BAG|ABd deg|ged edB|BAG A3:|
|:aba age|gef gag|efg eaa|eaf ged
eaa aba|gef g2a|age edB|BAG A3:|

